Yaru++/emotes/16/face-devilish.svg

<svg height="16" width="16" xmlns="http://www.w3.org/2000/svg"><g stroke-width="1.114808"><path d="m7.9827471.39466679a7.7947358 7.7947358 0 0 0 -4.8772839 1.70677071c-1.264192-.4949747-2.3332926-1.0579526-2.99660321-1.63765263l-.10367712.66219583c-.03790346.3021129.1148252 1.6878189 1.28871773 3.0657213a7.7501435 7.7501435 0 0 0 -1.1148077 4.006619 7.8036543 7.8036543 0 0 0 15.6073081 0c0-1.438102-.401331-2.7792157-1.080248-3.9363861 1.12707-1.3578359 1.326621-2.6643905 1.289832-2.9620442l-.104792-.66108101c-.645473.56409271-1.671097 1.08136351-2.891811 1.56741971-.0067-.00557-.02898.00557-.03456 0a7.7200437 7.7200437 0 0 0 -4.9820749-1.81156261zm-2.2296155 4.45923101c.6220628 0 1.1493668.5273041 1.1493668 1.1493668v1.0802487c0 .6220627-.527304 1.1148077-1.1493668 1.1148077-.6220627 0-1.1148077-.492745-1.1148077-1.1148077v-1.0802487c0-.6220627.492745-1.1493668 1.1148077-1.1493668zm4.4592314 0c.622062 0 1.114807.5273041 1.114807 1.1493668v1.0802487c0 .6220627-.492745 1.1148077-1.114807 1.1148077-.6220629 0-1.1148081-.492745-1.1148081-1.1148077v-1.0802487c0-.6220627.4927452-1.1493668 1.1148081-1.1493668zm2.229615 5.5495132c-.03344.383494-1.031197 3.347767-4.4592309 3.355571-3.1091988.0067-4.459231-2.852793-4.459231-3.327701z" fill="#f22c42"/><path d="m7.9827471.39466679a7.7947358 7.7947358 0 0 0 -4.8772839 1.70704941c-1.264192-.4949747-2.3327352-1.0576739-2.99604581-1.63737393l-.10451322.66191713c-.009591.076447-.006503.2227036.0217736.4202302l.08273962-.5247434c.66331061.5797 1.73185381 1.1423992 2.99604581 1.6373738a7.7947358 7.7947358 0 0 1 4.8772839-1.70704933 7.7200437 7.7200437 0 0 1 4.9817969 1.81156263c.0056.00557.02815-.00557.03484 0 1.220714-.4860562 2.246059-1.0036057 2.891533-1.5676984l.07838.4986151c.0307-.1840242.03528-.3200956.02613-.3941019l-.104513-.66191711c-.645474.56409271-1.670819 1.08164221-2.891533 1.56769841-.0067-.00557-.02926.00557-.03484 0a7.7200437 7.7200437 0 0 0 -4.9817939-1.81156261zm-6.8652125 4.12391781a7.7501435 7.7501435 0 0 0 -.9384417 3.6797364 7.8036543 7.8036543 0 0 0 .0087094.1894303 7.7501435 7.7501435 0 0 1 1.1060983-3.6383667c-.065643-.077051-.1169642-.1538912-.176366-.2308zm13.7565534.076208c-.05679.074634-.105312.149158-.167657.224268.651317 1.1101258 1.035797 2.3927206 1.066906 3.7646534a7.8036543 7.8036543 0 0 0 .01306-.3853925c0-1.3053174-.343568-2.5230449-.912313-3.6035289zm-10.2357641 2.4887207v.5574039c0 .6220627.492745 1.1148077 1.1148077 1.1148077.6220628 0 1.1496455-.492745 1.1496455-1.1148077v-.5574039c0 .6220627-.5275827 1.1148077-1.1496455 1.1148077-.6220627 0-1.1148077-.492745-1.1148077-1.1148077zm4.459231 0v.5574039c0 .6220627.4927452 1.1148077 1.1148081 1.1148077.622062 0 1.114807-.492745 1.114807-1.1148077v-.5574039c0 .6220627-.492745 1.1148077-1.114807 1.1148077-.6220629 0-1.1148081-.492745-1.1148081-1.1148077zm3.1637031 3.8778767c-.402713.969824-1.582371 2.791768-4.2785109 2.797905-2.4753107.0053-3.820192-1.791186-4.271978-2.7696h-.187253c0 .474908 1.3500322 3.333693 4.459231 3.327004 3.4280339-.0078 4.4257869-2.971816 4.4592309-3.355309z" fill="#fff" opacity=".3"/><path d="m.02667776.98908574-.02177359.13717366c-.03578394.2852191.10974758 1.5364677 1.11263043 2.8349213a7.7501435 7.7501435 0 0 1 .176366-.3266039c-.8768513-1.0292385-1.18375031-2.062402-1.26722284-2.64549106zm15.94262124.15023786c-.09343.5566896-.417565 1.5465518-1.262868 2.5649287.06269.1068453.109801.2232227.167657.3331359.969786-1.2745983 1.156094-2.4557515 1.12134-2.7369401zm-10.2161674 3.1571703c-.6220627 0-1.1148077.5275828-1.1148077 1.1496455v.5574039c0-.6220627.492745-1.1496455 1.1148077-1.1496455.6220628 0 1.1496455.5275828 1.1496455 1.1496455v-.5574039c0-.6220627-.5275827-1.1496455-1.1496455-1.1496455zm4.4592314 0c-.6220629 0-1.1148081.5275828-1.1148081 1.1496455v.5574039c0-.6220627.4927452-1.1496455 1.1148081-1.1496455.622062 0 1.114807.5275828 1.114807 1.1496455v-.5574039c0-.6220627-.492745-1.1496455-1.114807-1.1496455zm-10.0245607 3.5338535a7.7501435 7.7501435 0 0 0 -.00871.3679736 7.8036543 7.8036543 0 0 0 15.6073077 0c0-.058466-.01174-.113872-.01306-.1720113a7.8036543 7.8036543 0 0 1 -15.5855377-.1959623zm12.2541757 2.0162343-8.9184619.0283056c0 .096822.071558.3068477.187253.5574037l8.5504889-.0283c.109319-.263268.17358-.4755271.18072-.5574043z" opacity=".2"/></g></svg>

<?xml version="1.0" encoding="UTF-8" standalone="no"?>
<svg
   xmlns:dc="http://purl.org/dc/elements/1.1/"
   xmlns:cc="http://creativecommons.org/ns#"
   xmlns:rdf="http://www.w3.org/1999/02/22-rdf-syntax-ns#"
   xmlns:svg="http://www.w3.org/2000/svg"
   xmlns="http://www.w3.org/2000/svg"
   xmlns:sodipodi="http://sodipodi.sourceforge.net/DTD/sodipodi-0.dtd"
   xmlns:inkscape="http://www.inkscape.org/namespaces/inkscape"
   width="16"
   height="16"
   version="1.1"
   id="svg4"
   sodipodi:docname="face-devilish.svg"
   inkscape:version="0.92.4 (5da689c313, 2019-01-14)">
  <metadata
     id="metadata10">
    <rdf:RDF>
      <cc:Work
         rdf:about="">
        <dc:format>image/svg+xml</dc:format>
        <dc:type
           rdf:resource="http://purl.org/dc/dcmitype/StillImage" />
      </cc:Work>
    </rdf:RDF>
  </metadata>
  <defs
     id="defs8" />
  <sodipodi:namedview
     pagecolor="#ffffff"
     bordercolor="#666666"
     borderopacity="1"
     objecttolerance="10"
     gridtolerance="10"
     guidetolerance="10"
     inkscape:pageopacity="0"
     inkscape:pageshadow="2"
     inkscape:window-width="1920"
     inkscape:window-height="1016"
     id="namedview6"
     showgrid="false"
     inkscape:zoom="53.763632"
     inkscape:cx="7.9999998"
     inkscape:cy="12.266656"
     inkscape:window-x="0"
     inkscape:window-y="27"
     inkscape:window-maximized="1"
     inkscape:current-layer="svg4" />
  <path
     d="M 7.9827471,0.39466679 A 7.7947358,7.7947358 0 0 0 3.1054632,2.1014375 C 1.8412712,1.6064628 0.7721706,1.0434849 0.10885999,0.46378487 L 0.00518287,1.1259807 C -0.03272059,1.4280936 0.12000807,2.8137996 1.2939006,4.191702 a 7.7501435,7.7501435 0 0 0 -1.1148077,4.006619 7.8036543,7.8036543 0 0 0 15.6073081,0 c 0,-1.438102 -0.401331,-2.7792157 -1.080248,-3.9363861 1.12707,-1.3578359 1.326621,-2.6643905 1.289832,-2.9620442 L 15.891193,0.63880969 C 15.24572,1.2029024 14.220096,1.7201732 12.999382,2.2062294 c -0.0067,-0.00557 -0.02898,0.00557 -0.03456,0 A 7.7200437,7.7200437 0 0 0 7.9827471,0.39466679 Z M 5.7531316,4.8538978 c 0.6220628,0 1.1493668,0.5273041 1.1493668,1.1493668 v 1.0802487 c 0,0.6220627 -0.527304,1.1148077 -1.1493668,1.1148077 -0.6220627,0 -1.1148077,-0.492745 -1.1148077,-1.1148077 V 6.0032646 c 0,-0.6220627 0.492745,-1.1493668 1.1148077,-1.1493668 z m 4.4592314,0 c 0.622062,0 1.114807,0.5273041 1.114807,1.1493668 v 1.0802487 c 0,0.6220627 -0.492745,1.1148077 -1.114807,1.1148077 -0.6220629,0 -1.1148081,-0.492745 -1.1148081,-1.1148077 V 6.0032646 c 0,-0.6220627 0.4927452,-1.1493668 1.1148081,-1.1493668 z m 2.229615,5.5495132 c -0.03344,0.383494 -1.031197,3.347767 -4.4592309,3.355571 -3.1091988,0.0067 -4.459231,-2.852793 -4.459231,-3.327701 z"
     id="path2"
     style="fill:#f22c42;fill-opacity:1;stroke-width:1.11480772"
     inkscape:connector-curvature="0" />
  <path
     style="opacity:0.3;fill:#ffffff;fill-opacity:1;stroke-width:1.11480772"
     d="M 7.9827471,0.39466679 A 7.7947358,7.7947358 0 0 0 3.1054632,2.1017162 C 1.8412712,1.6067415 0.772728,1.0440423 0.10941739,0.46434227 L 0.00490417,1.1262594 c -0.009591,0.076447 -0.006503,0.2227036 0.0217736,0.4202302 L 0.10941739,1.0217462 C 0.772728,1.6014462 1.8412712,2.1641454 3.1054632,2.65912 A 7.7947358,7.7947358 0 0 1 7.9827471,0.95207067 7.7200437,7.7200437 0 0 1 12.964544,2.7636333 c 0.0056,0.00557 0.02815,-0.00557 0.03484,0 1.220714,-0.4860562 2.246059,-1.0036057 2.891533,-1.5676984 l 0.07838,0.4986151 c 0.0307,-0.1840242 0.03528,-0.3200956 0.02613,-0.3941019 L 15.890914,0.63853099 C 15.24544,1.2026237 14.220095,1.7201732 12.999381,2.2062294 c -0.0067,-0.00557 -0.02926,0.00557 -0.03484,0 A 7.7200437,7.7200437 0 0 0 7.9827471,0.39466679 Z M 1.1175346,4.5185846 A 7.7501435,7.7501435 0 0 0 0.1790929,8.198321 7.8036543,7.8036543 0 0 0 0.1878023,8.3877513 7.7501435,7.7501435 0 0 1 1.2939006,4.7493846 c -0.065643,-0.077051 -0.1169642,-0.1538912 -0.176366,-0.2308 z m 13.7565534,0.076208 c -0.05679,0.074634 -0.105312,0.149158 -0.167657,0.224268 0.651317,1.1101258 1.035797,2.3927206 1.066906,3.7646534 a 7.8036543,7.8036543 0 0 0 0.01306,-0.3853925 c 0,-1.3053174 -0.343568,-2.5230449 -0.912313,-3.6035289 z M 4.6383239,7.0835133 v 0.5574039 c 0,0.6220627 0.492745,1.1148077 1.1148077,1.1148077 0.6220628,0 1.1496455,-0.492745 1.1496455,-1.1148077 V 7.0835133 c 0,0.6220627 -0.5275827,1.1148077 -1.1496455,1.1148077 -0.6220627,0 -1.1148077,-0.492745 -1.1148077,-1.1148077 z m 4.459231,0 v 0.5574039 c 0,0.6220627 0.4927452,1.1148077 1.1148081,1.1148077 0.622062,0 1.114807,-0.492745 1.114807,-1.1148077 V 7.0835133 c 0,0.6220627 -0.492745,1.1148077 -1.114807,1.1148077 -0.6220629,0 -1.1148081,-0.492745 -1.1148081,-1.1148077 z M 12.261258,10.96139 c -0.402713,0.969824 -1.582371,2.791768 -4.2785109,2.797905 -2.4753107,0.0053 -3.820192,-1.791186 -4.271978,-2.7696 h -0.187253 c 0,0.474908 1.3500322,3.333693 4.459231,3.327004 3.4280339,-0.0078 4.4257869,-2.971816 4.4592309,-3.355309 z"
     id="path829"
     inkscape:connector-curvature="0" />
  <path
     style="opacity:0.2;fill:#000000;fill-opacity:1;stroke-width:1.11480772"
     d="M 0.02667776,0.98908574 0.00490417,1.1262594 C -0.03087977,1.4114785 0.11465175,2.6627271 1.1175346,3.9611807 A 7.7501435,7.7501435 0 0 1 1.2939006,3.6345768 C 0.4170493,2.6053383 0.11015029,1.5721748 0.02667776,0.98908574 Z M 15.969299,1.1393236 c -0.09343,0.5566896 -0.417565,1.5465518 -1.262868,2.5649287 0.06269,0.1068453 0.109801,0.2232227 0.167657,0.3331359 0.969786,-1.2745983 1.156094,-2.4557515 1.12134,-2.7369401 z M 5.7531316,4.2964939 c -0.6220627,0 -1.1148077,0.5275828 -1.1148077,1.1496455 v 0.5574039 c 0,-0.6220627 0.492745,-1.1496455 1.1148077,-1.1496455 0.6220628,0 1.1496455,0.5275828 1.1496455,1.1496455 V 5.4461394 c 0,-0.6220627 -0.5275827,-1.1496455 -1.1496455,-1.1496455 z m 4.4592314,0 c -0.6220629,0 -1.1148081,0.5275828 -1.1148081,1.1496455 v 0.5574039 c 0,-0.6220627 0.4927452,-1.1496455 1.1148081,-1.1496455 0.622062,0 1.114807,0.5275828 1.114807,1.1496455 V 5.4461394 c 0,-0.6220627 -0.492745,-1.1496455 -1.114807,-1.1496455 z M 0.1878023,7.8303474 a 7.7501435,7.7501435 0 0 0 -0.00871,0.3679736 7.8036543,7.8036543 0 0 0 15.6073077,0 c 0,-0.058466 -0.01174,-0.113872 -0.01306,-0.1720113 A 7.8036543,7.8036543 0 0 1 0.1878023,7.8303474 Z M 12.441978,9.8465817 3.5235161,9.8748873 c 0,0.096822 0.071558,0.3068477 0.187253,0.5574037 l 8.5504889,-0.0283 c 0.109319,-0.263268 0.17358,-0.4755271 0.18072,-0.5574043 z"
     id="path834"
     inkscape:connector-curvature="0" />
</svg>
